lib/logo_tmp/nrk-logo-nrk-tegnspraak.svg

<svg width="62" height="26" viewBox="0 0 62 26" fill="none" xmlns="http://www.w3.org/2000/svg">
<path d="M31.09 13.56C31.12 13.63 34.39 19 34.39 19H29.77C29.77 19 27.01 14.49 26.63 13.84C26.25 13.2 26.23 12.8 26.61 12.17L29.77 7H34.4L31.06 12.46C30.82 12.87 30.84 13.13 31.09 13.56ZM21.59 19V7H25.8V19H21.6H21.59ZM18.94 6.77C19.5748 6.77264 20.1827 7.02667 20.6306 7.47647C21.0785 7.92627 21.33 8.53521 21.33 9.17C21.33 9.80479 21.0785 10.4137 20.6306 10.8635C20.1827 11.3133 19.5748 11.5674 18.94 11.57C18.307 11.5647 17.7016 11.3095 17.2559 10.86C16.8101 10.4105 16.56 9.80307 16.56 9.17C16.56 8.53693 16.8101 7.92949 17.2559 7.47998C17.7016 7.03046 18.307 6.77528 18.94 6.77ZM12.06 19V7H16.26V19H12.06ZM0 19V7H4.2V19H0ZM9.5 8.93L11.77 19H7.2L4.48 7H7.18C8.33 7 9.29 7.83 9.51 8.93H9.5ZM49 1C50.5759 1 52.1363 1.31039 53.5922 1.91345C55.0481 2.5165 56.371 3.40042 57.4853 4.51472C58.5996 5.62902 59.4835 6.95189 60.0866 8.4078C60.6896 9.86371 61 11.4241 61 13C61 14.5759 60.6896 16.1363 60.0866 17.5922C59.4835 19.0481 58.5996 20.371 57.4853 21.4853C56.371 22.5996 55.0481 23.4835 53.5922 24.0866C52.1363 24.6896 50.5759 25 49 25C45.8174 25 42.7652 23.7357 40.5147 21.4853C38.2643 19.2348 37 16.1826 37 13C37 9.8174 38.2643 6.76515 40.5147 4.51472C42.7652 2.26428 45.8174 1 49 1ZM52.57 17.35L49.58 15.88L49.48 15.84L48.71 15.46C48.683 15.4462 48.6591 15.4273 48.6395 15.4043C48.6198 15.3812 48.605 15.3546 48.5957 15.3258C48.5864 15.297 48.5829 15.2666 48.5853 15.2364C48.5878 15.2063 48.5962 15.1769 48.61 15.15V15.12C48.67 15.01 48.81 14.96 48.92 15.02L49.7 15.4L49.8 15.45L52.18 16.62C52.47 16.76 52.8 16.66 52.93 16.39C53.07 16.12 52.94 15.79 52.66 15.66L49.7 14.2L49.67 14.19L49.64 14.17L48.91 13.81L49.96 13.6C50.27 13.54 50.48 13.25 50.42 12.96C50.36 12.66 50.06 12.48 49.76 12.54L46.48 13.2H46.47C45.8887 13.2876 45.3483 13.5516 44.922 13.9563C44.4956 14.361 44.2038 14.8869 44.086 15.4628C43.9682 16.0387 44.03 16.637 44.2633 17.1766C44.4965 17.7162 44.8898 18.1712 45.39 18.48C45.43 18.52 47.09 19.35 47.09 19.35L48.92 20.25C49.2 20.38 49.54 20.28 49.67 20.01C49.8 19.75 49.67 19.41 49.39 19.28L48.17 18.68L48.1 18.64L47.36 18.28C47.23 18.21 47.17 18.06 47.23 17.94C47.29 17.82 47.44 17.78 47.57 17.84L48.39 18.24L50.29 19.17C50.57 19.31 50.91 19.21 51.04 18.94C51.17 18.68 51.04 18.34 50.76 18.21L48.89 17.29L48.02 16.86C47.9681 16.8323 47.9289 16.7857 47.9103 16.7299C47.8917 16.6741 47.8951 16.6133 47.92 16.56V16.53C47.98 16.41 48.12 16.37 48.23 16.43L49.11 16.85L52.09 18.32C52.38 18.46 52.71 18.35 52.84 18.09C52.97 17.82 52.85 17.49 52.57 17.35ZM49.27 9.85L50.12 9.38L53.05 7.8C53.33 7.65 53.45 7.31 53.3 7.05C53.16 6.79 52.82 6.7 52.54 6.85L49.61 8.43L49.51 8.49L48.75 8.89C48.699 8.91655 48.64 8.92306 48.5845 8.90826C48.5289 8.89345 48.481 8.8584 48.45 8.81L48.43 8.78C48.4013 8.72686 48.3946 8.66456 48.4115 8.60656C48.4283 8.54856 48.4673 8.49951 48.52 8.47L49.28 8.06L49.38 8.01L51.72 6.74C52 6.59 52.11 6.25 51.97 5.99C51.83 5.73 51.49 5.64 51.21 5.79L48.31 7.36L48.28 7.38L48.24 7.39L47.52 7.79L47.97 6.79C48.1 6.51 47.98 6.17 47.71 6.05C47.44 5.93 47.11 6.06 46.98 6.35L45.61 9.4V9.41C45.3274 9.97148 45.237 10.6102 45.3527 11.228C45.4683 11.8459 45.7835 12.4087 46.25 12.83C46.34 12.79 46.43 12.75 46.53 12.73L49.79 12.11C50.18 12.03 50.54 12.25 50.7 12.63L50.99 12.47L52.79 11.5C53.06 11.35 53.17 11.02 53.03 10.76C52.89 10.5 52.55 10.41 52.27 10.56L51.07 11.21L51 11.24L50.27 11.64C50.14 11.71 49.99 11.67 49.92 11.54C49.86 11.43 49.92 11.28 50.04 11.21L50.84 10.78L52.71 9.77C52.98 9.62 53.09 9.28 52.95 9.02C52.81 8.76 52.47 8.67 52.19 8.82L50.35 9.82L49.5 10.28C49.4731 10.2938 49.4437 10.3022 49.4136 10.3047C49.3834 10.3071 49.353 10.3036 49.3242 10.2943C49.2955 10.285 49.2688 10.2702 49.2457 10.2505C49.2227 10.2309 49.2038 10.207 49.19 10.18L49.17 10.16C49.1562 10.1331 49.1478 10.1037 49.1453 10.0736C49.1429 10.0434 49.1464 10.013 49.1557 9.98425C49.165 9.95545 49.1798 9.92877 49.1995 9.90573C49.2191 9.8827 49.243 9.86376 49.27 9.85Z" fill="black"/>
</svg>

<svg xmlns="http://www.w3.org/2000/svg" viewBox="0 0 62 26"><path fill="#000" d="M31.09 13.56c.03.07 3.3 5.44 3.3 5.44h-4.62s-2.76-4.51-3.14-5.16c-.38-.64-.4-1.04-.02-1.67L29.77 7h4.63l-3.34 5.46c-.24.41-.22.67.03 1.1ZM21.59 19V7h4.21v12h-4.21ZM18.94 6.77a2.4 2.4 0 0 1 0 4.8 2.4 2.4 0 0 1 0-4.8ZM12.06 19V7h4.2v12h-4.2ZM0 19V7h4.2v12H0ZM9.5 8.93 11.77 19H7.2L4.48 7h2.7c1.15 0 2.11.83 2.33 1.93H9.5ZM49 1a12 12 0 1 1 0 24 12 12 0 0 1 0-24Zm3.57 16.35-2.99-1.47-.1-.04-.77-.38a.23.23 0 0 1-.1-.31v-.03c.06-.11.2-.16.31-.1l.78.38.1.05 2.38 1.17c.29.14.62.04.75-.23.14-.27.01-.6-.27-.73L49.7 14.2l-.03-.01-.03-.02-.73-.36 1.05-.21c.31-.06.52-.35.46-.64a.553.553 0 0 0-.66-.42l-3.28.66h-.01a2.87 2.87 0 0 0-1.08 5.28c.04.04 1.7.87 1.7.87l1.83.9c.28.13.62.03.75-.24.13-.26 0-.6-.28-.73l-1.22-.6-.07-.04-.74-.36c-.13-.07-.19-.22-.13-.34.06-.12.21-.16.34-.1l.82.4 1.9.93c.28.14.62.04.75-.23.13-.26 0-.6-.28-.73l-1.87-.92-.87-.43a.23.23 0 0 1-.1-.3v-.03c.06-.12.2-.16.31-.1l.88.42 2.98 1.47c.29.14.62.03.75-.23.13-.27.01-.6-.27-.74Zm-3.3-7.5.85-.47 2.93-1.58c.28-.15.4-.49.25-.75-.14-.26-.48-.35-.76-.2l-2.93 1.58-.1.06-.76.4a.23.23 0 0 1-.3-.08l-.02-.03a.23.23 0 0 1 .09-.31l.76-.41.1-.05 2.34-1.27c.28-.15.39-.49.25-.75s-.48-.35-.76-.2l-2.9 1.57-.03.02-.04.01-.72.4.45-1c.13-.28.01-.62-.26-.74s-.6.01-.73.3L45.61 9.4v.01a2.87 2.87 0 0 0 .64 3.42c.09-.04.18-.08.28-.1l3.26-.62c.39-.08.75.14.91.52l.29-.16 1.8-.97c.27-.15.38-.48.24-.74s-.48-.35-.76-.2l-1.2.65-.07.03-.73.4a.25.25 0 0 1-.35-.1c-.06-.11 0-.26.12-.33l.8-.43 1.87-1.01c.27-.15.38-.49.24-.75s-.48-.35-.76-.2l-1.84 1-.85.46a.231.231 0 0 1-.254-.03.23.23 0 0 1-.056-.07l-.02-.02a.231.231 0 0 1 .03-.254.23.23 0 0 1 .07-.056Z"/></svg>
